!!!COM: Haydn, Franz Joseph
!!!OTL: String Quartet in E-flat Major
!!!OPS: Opus 76
!!!ONM: No. 6
!!!OMD: Fantasia: Adagio
!!!OMV: 2
!!!SCT: H III:80
!!!SCA: Thematisch-bibliographisches Werkevererzeichnis (A. van Hoboken)
!!!YOR: Trautwein Edition
!!!ENC: Frances Bennion
!!!CDT: 1732/3/31/-1809/5/31/
!!!CNT: Oesterreich
!!!YEC: Copyright (c) 1994, 2000 Center for Computer Assisted Research in the Humanities
!!!YEM: Rights to all derivative editions reserved.
!!!YEM: Refer to licensing agreement for further details.
!!!YEN: United States of America
**kern	**kern	**kern	**kern
*k[]	*k[]	*k[]	*k[]
*b:	*b:	*b:	*b:
*clefF4	*clefC3	*clefF	*clefF
*M3/4	*M3/4	*M3/4	*M3/4
4B	4d#	[2.f#	4b
4c#	4e	.	4a#
4B	4d#	.	4b
=2	=2	=2	=2
2A#	2c#	2.f#]	8.cc#
.	.	.	16dd#
.	.	.	4ee
4B	[4B	.	4dd#
=3	=3	=3	=3
2E	8.B]	[2.g#	4dd#
.	16B#	.	.
.	[2c#	.	4cc#
4E#	.	.	4b
=4	=4	=4	=4
4.F#	4.c#]	4g#]	4b
.	.	8f#	8a#
8e	8g#	4.r	4.r
8d#	8f#	.	.
8c#	8e	.	.
=5	=5	=5	=5
4B	4d#	[2.f#	4b
4c#	4e	.	4a#
4B	4d#	.	4b
=6	=6	=6	=6
8.A#	8.c#	4f#]	8.cc#
16G#	16B	.	16dd#
4F#	4A#	4cc#	4ee
4G#	4B	4b	4dd#
=7	=7	=7	=7
4E	4c#	4g#	12cc#
.	.	.	12ee
.	.	.	12gg#
2F#	4d#	4f#	4b
.	4e	8.e	4a#
.	.	16c#	.
=8	=8	=8	=8
4.BB	4e	4A#	4cc#
.	8d#	8B	8b
8BB	4.r	4.r	4.r
8D#	.	.	.
8F#	.	.	.
=9	=9	=9	=9
4B	4d#	[2.f#	4b
4c#	4e	.	4a#
4B	4d#	.	4b
=10	=10	=10	=10
2A#	2c#	2.f#]	8.cc#
.	.	.	16dd#
.	.	.	4ee
4B	[4B	.	4dd#
=11	=11	=11	=11
2E	8.B]	[2.g#	4dd#
.	16B#	.	.
.	[2c#	.	4cc#
4E#	.	.	4b
=12	=12	=12	=12
4.F#	4.c#]	4g#]	4b
.	.	8f#	8a#
8e	8g#	4.r	4.r
8d#	8f#	.	.
8c#	8e	.	.
=13	=13	=13	=13
4B	4d#	2.f#	4b
4c#	4e	.	4a#
4B	4d#	.	4b
=14	=14	=14	=14
2A#	8.e	2.g	8.cc#
.	16d#	.	16dd#
.	[2c#	.	[2ee
4A	.	.	.
=15	=15	=15	=15
2.G#	8.c#]	2g#	8.ee]
.	16d#	.	16ff#
.	4e	.	4gg#
.	4f#	4d#	4b#
=16	=16	=16	=16
4C#	4e	4e	8cc#
.	.	.	8c#
2r	2r	2r	8d#
.	.	.	8e
.	.	.	8f#
.	.	.	8g#
=17	=17	=17	=17
2.r	2.r	2.r	8a
.	.	.	8d#
.	.	.	8e
.	.	.	8f#
.	.	.	8g#
.	.	.	8a
=18	=18	=18	=18
2.r	2.r	2.r	8b
.	.	.	8e#
.	.	.	8f#
.	.	.	8g#
.	.	.	8a
.	.	.	8b
=19	=19	=19	=19
2.r	2.r	2.r	8cc#
.	.	.	8g#
.	.	.	8a
.	.	.	8b
.	.	.	8cc#
.	.	.	8dd#
=20	=20	=20	=20
4e	4g#	[2.b	4ee
4f#	4a	.	4dd#
4e	4g#	.	4ee
=21	=21	=21	=21
2d#	2f#	2.b]	8.ff#
.	.	.	16gg#
.	.	.	4aa
4e	[4e	.	4gg#
=22	=22	=22	=22
2A	8.e]	[2.cc#	4gg#
.	16f	.	.
.	[2f#	.	4ff#
4A#	.	.	4ee
=23	=23	=23	=23
2B	4.f#]	4cc#]	4ee
.	.	8b	8dd#
.	8a	8cc#	4.r
4r	8g#	8b	.
.	8f#	8a	.
=24	=24	=24	=24
2.E	4e 4B	4g	4ee
.	4c	4a	4dd#
.	4B	4g	4ee
=25	=25	=25	=25
2D	8.c	8.a	8.ff#
.	16B	16b	16gg
.	4F#	4cc	2aa
4c	4f#	[4dd	.
=26	=26	=26	=26
8.B	4.g	4dd]	8.gg
16G	.	.	16bb
8D	.	8b	8ddd
8r	8r	8r	8r
8D	8a 8d	8cc 8d	8ff# 8d 8a
8r	8r	8r	8r
=27	=27	=27	=27
8G	4G 4g	4G 4b 4d	4d 4gg 4b
8GG	.	.	.
8FF#	2r	2r	4r
8GG	.	.	.
8AA	.	.	4r
8BB	.	.	.
=28	=28	=28	=28
8C	2.r	2.r	2.r
8AA	.	.	.
8GG#	.	.	.
8AA	.	.	.
8BB	.	.	.
8C	.	.	.
=29	=29	=29	=29
8D	2.r	2.r	2.r
8BB	.	.	.
8C	.	.	.
8D	.	.	.
8E	.	.	.
8F#	.	.	.
=30	=30	=30	=30
8G	2.r	2.r	2.r
8D	.	.	.
8E	.	.	.
8F#	.	.	.
8G	.	.	.
8A	.	.	.
=31	=31	=31	=31
4B-	4d	[2.f	4b-
4c	4e-	.	4a
4B-	4d	.	4b-
=32	=32	=32	=32
2A	2c	2.f]	8.cc
.	.	.	16dd
.	.	.	4ee-
4B-	[4B-	.	4dd
=33	=33	=33	=33
2E-	8.B-]	[2.g	4dd
.	16B	.	.
.	[2c	.	4cc
4E	.	.	4b-
=34	=34	=34	=34
4.F	4c]	4g]	4b-
.	2r	4f	8a
8E-	.	.	8g
8D	.	4r	8f
8C	.	.	8a
=35	=35	=35	=35
4BB-	4c#	2.f	4b-
4C	4d#	.	4a
4D-	4c#	.	4b-
=36	=36	=36	=36
2.E-	[2.B	2.f#	8.cc-
.	.	.	16dd-
.	.	.	2ee-
=37	=37	=37	=37
2.E	8.B]	8.g#	8.cc#
.	16A#	16f#	16dd#
.	4G#	4e	2ee
.	4c#	4a#	.
=38	=38	=38	=38
2.F#	4B	4b	12dd#
.	.	.	12ee
.	.	.	12ff#
.	4d#	4f#	4b
.	4c#	4e	4a#
=39	=39	=39	=39
4BB	4B	8d#	4b
.	.	8B	.
2r	2r	8c#	4b
.	.	8d#	.
.	.	8e	4b
.	.	8g#	.
=40	=40	=40	=40
2.r	2.r	4f	4b
.	.	8f#	8a#
.	.	4.r	8g#
.	.	.	8a#
.	.	.	8b#
=41	=41	=41	=41
2.r	2.r	8r	4cc#
.	.	8c#	.
.	.	8d#	4cc#
.	.	8e	.
.	.	8f#	4cc#
.	.	8a	.
=42	=42	=42	=42
2.r	2.r	4f##	4cc#
.	.	8g#	8b#
.	.	4.r	8a#
.	.	.	8b#
.	.	.	8dd#
=43	=43	=43	=43
8r	2.r	4cc#	4ee
8C#	.	.	.
8D#	.	4cc#	4ee
8E	.	.	.
8F#	.	[4cc#	4ee
8A	.	.	.
=44	=44	=44	=44
2F##	8r	4cc#]	[2.dd#
.	8A#	.	.
.	8d#	8b	.
.	8c#	8a#	.
8G#	[4B	8b	.
8F#	.	8a#	.
=45	=45	=45	=45
2.E	8B]	2g#	4dd#]
.	8B	.	.
.	8e	.	8cc#
.	8d#	.	8b#
.	8c#	8a#	8cc#
.	8B	8g#	8cc#
=46	=46	=46	=46
2EE	2A#	2f##	2cc#
4r	4r	4r	4r
=47	=47	=47	=47
2FF	2d	2g#	2b
4r	4r	4r	4r
=48	=48	=48	=48
2EE-	2d-	2g	2B-
4r	4r	4r	4r
=49	=49	=49	=49
4AA-	4c	[2.e-	4a-
4BB-	4d-	.	4g
4AA-	4c	.	4a-
=50	=50	=50	=50
2GG	2B-	2.e-]	8.b-
.	.	.	16cc
.	.	.	4dd-
4AA-	[4A-	.	4cc
=51	=51	=51	=51
2D-	8.A-]	[2.f	4cc
.	16A	.	.
.	[2B-	.	4b-
4D	.	.	4a-
=52	=52	=52	=52
4.E-	4.B-]	4f]	4a-
.	.	4e-	4g
8d-	8f	.	.
8c	8e-	4r	4r
8B-	8d-	.	.
=53	=53	=53	=53
4A-	4c	[2.e-	4a-
4B-	4d-	.	4g
4A-	4c	.	4a-
=54	=54	=54	=54
8.G	8.B-	4e-]	8.b-
16F	16A-	.	16cc
4E-	4G	4b-	4dd-
4F	4A-	4a-	4cc
=55	=55	=55	=55
4D-	4B-	4f	24cc
.	.	.	24b-
.	.	.	24dd-
.	.	.	24ff
.	.	.	24dd-
.	.	.	24b-
2E-	4c	4e-	4a-
.	4d-	8.c#	4g
.	.	16B-	.
=56	=56	=56	=56
8A-	4c	4A-	4a-
8AA-	.	.	.
8GG	2r	2r	4r
8AA-	.	.	.
8BB-	.	.	4r
8C	.	.	.
=57	=57	=57	=57
8D-	2.r	2.r	2.r
8BB-	.	.	.
8AA	.	.	.
8BB-	.	.	.
8C	.	.	.
8D-	.	.	.
=58	=58	=58	=58
8E-	2.r	2.r	2.r
8C	.	.	.
8D-	.	.	.
8E-	.	.	.
8F	.	.	.
8G	.	.	.
=59	=59	=59	=59
8A-	2.r	2.r	2.r
8E-	.	.	.
8F	.	.	.
8G	.	.	.
8A-	.	.	.
8B-	.	.	.
=60	=60	=60	=60
4B	4d#	[2.f#	4b
4c#	4e	.	4a#
4B	4d#	.	4b
=61	=61	=61	=61
2A#	2c#	2.f#]	8.cc#
.	.	.	16dd#
.	.	.	4ee
4B	[4B	.	4dd#
=62	=62	=62	=62
2E	8.B]	[2.g#	4dd#
.	16B#	.	.
.	[2c#	.	4cc#
4E#	.	.	4b
=63	=63	=63	=63
4.F#	4.c#]	4g#]	4b
.	.	4f#	4a#
8e	8g#	.	.
8d#	8f#	4r	4r
8c#	8e	.	.
=64	=64	=64	=64
4B	8d#	4b	2.r
.	8g#	.	.
2r	8f#	4a#	.
.	8e	.	.
.	8d#	4b	.
.	8B	.	.
=65	=65	=65	=65
2.r	8A#	8.cc#	2.r
.	8f#	.	.
.	.	16dd#	.
.	8c#	4ee	.
.	8A#	.	.
.	8B	8dd#	.
.	8A#	8cc#	.
=66	=66	=66	=66
2.r	8G#	4.b	4ff#
.	8d#	.	.
.	4g#	.	4ee#
.	.	8cc#	.
.	4f#	8b	4ff#
.	.	8a#	.
=67	=67	=67	=67
2.r	8e#	8g#	8.gg#
.	8d#	8f#	.
.	.	.	16aa#
.	8c#	8e#	4bb
.	8e#	8g#	.
.	8f#	8f#	8aa#
.	8A#	[8ee	8ccc#
=68	=68	=68	=68
4BB	4B	8ee]	8ff#
.	.	8dd#	4gg#
4AA#	2r	4cc#	.
.	.	.	8ff#
4BB	.	4f#	8ee
.	.	.	[8dd#
=69	=69	=69	=69
8.C#	2.r	8.e	8dd#]
.	.	.	4cc#
16D#	.	16f#	.
4E	.	4g#	.
.	.	.	8b#
4D#	.	4f#	8cc#
.	.	.	8dd#
=70	=70	=70	=70
8C#	2.r	8e	4.ee
8BB	.	8g#	.
8AA#	.	8cc#	.
8FF#	.	8a#	16ff#
.	.	.	16gg#
8GG#	.	8b	8ff#
8AA#	.	[8cc#	[8ee
=71	=71	=71	=71
4BB	4f#	8cc#]	8ee]
.	.	16b	16dd#
.	.	16a#	16cc#
4B	4e#	4b	4dd#
8A#	4f#	4r	4cc#
16G#	.	.	.
16F#	.	.	.
=72	=72	=72	=72
8E#	8.g#	2.r	[2.cc#
8D#	.	.	.
.	16a#	.	.
8C#	4b	.	.
8E#	.	.	.
8F#	8a#	.	.
8E	8g#	.	.
=73	=73	=73	=73
4.D#	4.f##	2.r	8.cc#]
.	.	.	16dd#
.	.	.	8ee
8D#	8f##	.	8ee
8E#	8g#	.	8dd#
8F##	8a#	.	8cc#
=74	=74	=74	=74
4G#	8g#	4g#	4b
.	8e	.	.
2r	8d#	4f##	4r
.	8c#	.	.
.	8B	4g#	4r
.	8G#	.	.
=75	=75	=75	=75
2.r	4.F##	8.a#	4ee
.	.	16b	.
.	.	4cc#	4dd#
.	8F##	.	.
.	8G#	4b	4ee
.	8g#	.	.
=76	=76	=76	=76
2.r	8f#	8a	8.ff#
.	8e	8g#	.
.	.	.	16gg#
.	8d#	8f#	4aa
.	8B	8dd#	.
.	8c#	8ee	[4gg#
.	8B	8dd#	.
=77	=77	=77	=77
4AA	8A	4cc#	8gg#]
.	8c#	.	4ff#
4GG#	4d	4b	.
.	.	.	8ee#
8.AA	[4c#	4cc#	8ff#
.	.	.	[8ee
16AA#	.	.	.
=78	=78	=78	=78
8.BB	8c#]	2.f#	8ee]
.	16B	.	16dd#
16C#	16A#	.	16cc#
2D#	4B	.	8b
.	.	.	8a#
.	4r	.	8b
.	.	.	8a
=79	=79	=79	=79
8E	4e	4B	4g#
8c#	.	.	.
8B	4d#	2r	4r
8A	.	.	.
8G#	4e	.	4r
8E	.	.	.
=80	=80	=80	=80
8D#	8.f#	2.r	2.r
8B	.	.	.
.	16g#	.	.
8F#	4a	.	.
8D#	.	.	.
8E	8g#	.	.
8D#	8f#	.	.
=81	=81	=81	=81
8C#	4.e	4b	2.r
8G#	.	.	.
4c#	.	4a#	.
.	8f#	.	.
4B	8e	4b	.
.	8d#	.	.
=82	=82	=82	=82
8A#	8c#	8.cc#	2.r
8G#	8B	.	.
.	.	16dd#	.
8F#	8A#	4ee	.
8A#	4f#	.	.
4B	.	4dd#	.
.	8d#	.	.
=83	=83	=83	=83
2G#	8B#	8.dd#	4r
.	8g#	.	.
.	.	16ee	.
.	8d#	4ff#	2gg#
.	8B#	.	.
4C#	8c#	[4ee	.
.	[8cc#	.	.
=84	=84	=84	=84
2.r	8cc#]	8ee]	4ff##
.	16b	16dd#	.
.	16a#	16cc#	.
.	8b	8dd#	2gg#
.	8a#	8cc#	.
.	8b	8dd#	.
.	8ee	8gg#	.
=85	=85	=85	=85
2.r	8cc#	4gg#	8.aa#
.	8b	.	.
.	.	.	16bb
.	8a#	4ff##	4ccc#
.	8d#	.	.
.	8g#	8gg#	4bb
.	8f#	8bb	.
=86	=86	=86	=86
2.r	8e	4bb	8.ccc#
.	8d#	.	.
.	.	.	16ddd#
.	8c#	4aa#	4eee
.	8f#	.	.
.	8B	8bb	[4ddd#
.	8d#	8aa#	.
=87	=87	=87	=87
8.C#	8.e	2.gg#	8ddd#]
.	.	.	8gg#
16D#	16d#	.	.
8E	[2c#	.	4ccc#
8D#	.	.	.
8E	.	.	4bb
8E#	.	.	.
=88	=88	=88	=88
[2.F#	4.c#]	4ff#	4bb
.	.	8r	8aa#
.	8d#	8ff#	8ff#
.	8d#	8ff#	8ff#
.	8c#	8ee	8ff##
=89	=89	=89	=89
2.F#]	4B#	4dd#	8gg#
.	.	.	16aa
.	.	.	16gg#
.	4A#	4cc#	[2gg#
.	4B#	4dd#	.
=90	=90	=90	=90
[2.E	8.c#	8.ee	3..gg#_
.	16d#	16dd#	.
.	8e	8cc#	.
.	8d#	8dd#	.
.	8c#	8ee	.
.	.	.	24gg#]
.	8B	8dd	8gg
=91	=91	=91	=91
2.E]	4A#	4cc#	8ff#
.	.	.	16gg#
.	.	.	16ff#
.	4G#	4b	[2ff#
.	4A#	4cc#	.
=92	=92	=92	=92
2.D#	8.B	8.dd#	2.ff#_
.	16c#	16cc#	.
.	8d#	8b	.
.	8c#	8cc#	.
.	8B	8dd#	.
.	8A#	8cc#	.
=93	=93	=93	=93
2.E	4.G#	4.b	8ff#]
.	.	.	8b
.	.	.	4ee
.	16A#	8a#	.
.	16B	.	.
.	8c#	8g#	4ee
.	8c#	16a#	.
.	.	16b	.
=94	=94	=94	=94
4F#	2c#	2a#	2ee
4F##	.	.	.
4G#	4B	4b	4dd#
=95	=95	=95	=95
4E	4e	4b	8.gg#
.	.	.	16aa#
2r	2r	2r	16bb
.	.	.	16aa#
.	.	.	16gg#
.	.	.	16ff#
.	.	.	16ee
.	.	.	16dd#
.	.	.	16ff#
.	.	.	16ee
=96	=96	=96	=96
2e	2g#	2cc#	16gg#
.	.	.	16ff#
.	.	.	16aa
.	.	.	16gg#
.	.	.	16ff#
.	.	.	16ee
.	.	.	16aa
.	.	.	16gg#
4r	4r	4r	16ff#
.	.	.	16ee
.	.	.	16bb
.	.	.	16aa
=97	=97	=97	=97
2d#	2g#	2b#	16gg#
.	.	.	16ff#
.	.	.	16bb
.	.	.	16aa
.	.	.	16gg#
.	.	.	16ff#
.	.	.	16bb
.	.	.	16aa
4r	4r	4r	16gg#
.	.	.	16ff#
.	.	.	16aa
.	.	.	16gg#
=98	=98	=98	=98
2e	2g#	2cc#	16ff#
.	.	.	16ee
.	.	.	16aa
.	.	.	16gg#
.	.	.	16ff#
.	.	.	16ee
.	.	.	16dd#
.	.	.	16cc#
4r	4r	4r	16b#
.	.	.	16cc#
.	.	.	16ee
.	.	.	16gg#
=99	=99	=99	=99
2.F#	8d#	8r	2b
.	16e	16g#	.
.	16d#	16f#	.
.	16c#	16e	.
.	16B	16d#	.
.	16e	16g#	.
.	16d#	16f#	.
.	16c#	16e	8.a#
.	16B	16d#	.
.	16c#	16e	.
.	16c#	16e	16b
=100	=100	=100	=100
8r	8B	2d#	2b
16G#	16B	.	.
16F#	16A#	.	.
16E	16G#	.	.
16D#	16F#	.	.
16G#	16B	.	.
16F#	16A#	.	.
16E	16G#	8e	8cc#
16D#	16F#	.	.
16C#	16E	8f#	8dd#
16BB	16D#	.	.
=101	=101	=101	=101
2AA#	4C#	[2.f#	8ee
.	.	.	16aa
.	.	.	16gg#
.	4c#	.	16ff#
.	.	.	16ee
.	.	.	16gg#
.	.	.	16ff#
4BB	4B	.	16ee
.	.	.	16dd#
.	.	.	16cc#
.	.	.	16b
=102	=102	=102	=102
4E	4E	16f#]	16a#
.	.	16e	16g#
.	.	16d#	16f#
.	.	16c#	16e
4F#	4F#	8B	8d#
.	.	8d#	8f#
4FF#	4r	8c#	8e
.	.	8e	8a#
=103	=103	=103	=103
8r	8r	2d#	2b
16G#	16B	.	.
16F#	16A#	.	.
16E	16G#	.	.
16D#	16F#	.	.
16G#	16B	.	.
16F#	16A#	.	.
16E	16G#	8e	8cc#
16D#	16F#	.	.
16C#	16E	8f#	8dd#
16BB	16D#	.	.
=104	=104	=104	=104
2AA#	4C#	[2.f#	8ee
.	.	.	16aa
.	.	.	16gg#
.	4c#	.	16ff#
.	.	.	16ee
.	.	.	16gg#
.	.	.	16ff#
4BB	4B	.	16ee
.	.	.	16dd#
.	.	.	16cc#
.	.	.	16b
=105	=105	=105	=105
4E	4E	16f#]	16a#
.	.	16e	16g#
.	.	16d#	16f#
.	.	16c#	16e
4F#	4F#	8B	8d#
.	.	8d#	8f#
4F#	4r	8c#	8e
.	.	8e	8a#
=106	=106	=106	=106
[2.BB	4d#	4f#	4b
.	4e	4g	4a#
.	4d#	4f#	4b
=107	=107	=107	=107
2.BB_	2A# 2e	16g	8.cc#
.	.	16f#	.
.	.	16a	.
.	.	16g	16dd
.	.	16f#	4ee
.	.	16e	.
.	.	16a	.
.	.	16g	.
.	4c#	16f#	4a#
.	.	16e	.
.	.	16g	.
.	.	16e	.
=108	=108	=108	=108
2.BB_	4d#	4f#	4b
.	4e	4g	4a#
.	4d#	4f#	4b
=109	=109	=109	=109
2.BB_	2e 2A#	16g	8.cc#
.	.	16f#	.
.	.	16a	.
.	.	16g	16dd
.	.	16f#	4ee
.	.	16e	.
.	.	16a	.
.	.	16g	.
.	4c#	16f#	4a#
.	.	16e	.
.	.	16g	.
.	.	16e	.
=110	=110	=110	=110
4BB]	8B	4d#	4b
.	16G#	.	.
.	16F#	.	.
4BB	16E	4B	4d#
.	16D#	.	.
.	16G#	.	.
.	16F#	.	.
4BB	16E	4B	4d#
.	16D#	.	.
.	16G#	.	.
.	16F#	.	.
=111	=111	=111	=111
16BB	[2.F#	[2.B	[2.d#
16AA#	.	.	.
16BB	.	.	.
16FF#	.	.	.
16BB	.	.	.
16AA#	.	.	.
16BB	.	.	.
16FF#	.	.	.
16BB	.	.	.
16AA#	.	.	.
16BB	.	.	.
16FF#	.	.	.
=112	=112	=112	=112
2.BB	2.F#]	2.B]	2.d#]
==	==	==	==
*-	*-	*-	*-
!!!RWG1: This file contains only pitch and duration data.
!!!RWG2: Transposing instruments are not transposed.
!!!RWG3: Spines may have incompatible meters.
!!!RWG4: Durations of rests and tied notes may be interpreted.
!!!RWG: Key is interpreted using the Humdrum key tool.
!!!GTL: 6 Quartetti ("Erdödy")
!!!AFT: stage1
!!!END: 1997/04/15
!!!KEY: 2865883082
!!!EMD: Converted from MuseData to Humdrum Dec 16, 2000, by Andreas Kornstaedt using muse2kern.
!!!EMD: Manual editing by Craig Sapp, Nov 2001
